src/svg/icon-twitter.svg

<svg fill="none" height="26" viewBox="0 0 26 26" width="26" xmlns="http://www.w3.org/2000/svg"><g stroke="#1300ed"><path d="m18.6665 1h-11.34352c-3.47659 0-6.32298 2.90941-6.32298 6.45952v11.08098c0 3.5501 2.84639 6.4595 6.32298 6.4595h11.34352c3.4766 0 6.323-2.9094 6.323-6.4595v-11.08098c0-3.55011-2.8464-6.45952-6.323-6.45952z" stroke-miterlimit="10" stroke-width="1.5"/><path d="m17.8613 9.69333c.0451-.00902.09-.01862.1346-.02878l.2871.79725c-.0446.0357-.0898.0706-.1357.1048l-.227.1691.0281.2817c.0076.0755.0081.1649.0081.2863 0 3.2317-2.3964 6.8943-6.7158 6.8943-.6773 0-1.33191-.1042-1.9498-.2973.7902-.1974 1.5147-.5658 2.135-1.059l1.0878-.8651-1.3896-.0262c-.6237-.0118-1.18362-.3145-1.55269-.7859.15582-.0187.30995-.0499.45809-.0944l-.04227-.9685c-.69461-.1439-1.26558-.6503-1.51041-1.3249.16327.0329.33155.0519.50369.0562l1.68329.0421-1.38753-.954c-.5394-.3708-.90712-1.0165-.90712-1.7517 0-.1219.0098-.24032.02868-.35511 1.30315 1.31621 3.06477 2.16451 5.02377 2.26201l.6552.0326-.1423-.6405c-.0337-.1514-.0511-.3145-.0511-.4797 0-1.17621.9237-2.10481 2.0313-2.10481.5773 0 1.1076.25085 1.48.65712l.1903.20768z" fill="#1300ed"/></g></svg>

<svg width="26" height="26" viewBox="0 0 26 26" fill="none" xmlns="http://www.w3.org/2000/svg">
<path d="M18.6665 1H7.32298C3.84639 1 1 3.90941 1 7.45952V18.5405C1 22.0906 3.84639 25 7.32298 25H18.6665C22.1431 25 24.9895 22.0906 24.9895 18.5405V7.45952C24.9895 3.90941 22.1431 1 18.6665 1Z" stroke="#1300ED" stroke-width="1.5" stroke-miterlimit="10"/>
<path d="M17.8613 9.69333C17.9064 9.68431 17.9513 9.67471 17.9959 9.66455L18.283 10.4618C18.2384 10.4975 18.1932 10.5324 18.1473 10.5666L17.9203 10.7357L17.9484 11.0174C17.956 11.0929 17.9565 11.1823 17.9565 11.3037C17.9565 14.5354 15.5601 18.198 11.2407 18.198C10.5634 18.198 9.90879 18.0938 9.2909 17.9007C10.0811 17.7033 10.8056 17.3349 11.4259 16.8417L12.5137 15.9766L11.1241 15.9504C10.5004 15.9386 9.94048 15.6359 9.57141 15.1645C9.72723 15.1458 9.88136 15.1146 10.0295 15.0701L9.98723 14.1016C9.29262 13.9577 8.72165 13.4513 8.47682 12.7767C8.64009 12.8096 8.80837 12.8286 8.98051 12.8329L10.6638 12.875L9.27627 11.921C8.73687 11.5502 8.36915 10.9045 8.36915 10.1693C8.36915 10.0474 8.37895 9.92898 8.39783 9.81419C9.70098 11.1304 11.4626 11.9787 13.4216 12.0762L14.0768 12.1088L13.9345 11.4683C13.9008 11.3169 13.8834 11.1538 13.8834 10.9886C13.8834 9.81239 14.8071 8.88379 15.9147 8.88379C16.492 8.88379 17.0223 9.13464 17.3947 9.54091L17.585 9.74859L17.8613 9.69333Z" fill="#1300ED" stroke="#1300ED"/>
</svg>
